Catalina-dark/actions/16/restoration.svg

<?xml version="1.0" encoding="UTF-8" standalone="no"?>
<svg
   xmlns:dc="http://purl.org/dc/elements/1.1/"
   xmlns:cc="http://creativecommons.org/ns#"
   xmlns:rdf="http://www.w3.org/1999/02/22-rdf-syntax-ns#"
   xmlns:svg="http://www.w3.org/2000/svg"
   xmlns="http://www.w3.org/2000/svg"
   xmlns:sodipodi="http://sodipodi.sourceforge.net/DTD/sodipodi-0.dtd"
   xmlns:inkscape="http://www.inkscape.org/namespaces/inkscape"
   width="16"
   height="16"
   viewBox="0 0 16 16"
   version="1.1"
   id="svg7"
   sodipodi:docname="restoration.svg"
   inkscape:version="0.92.4 5da689c313, 2019-01-14">
  <metadata
     id="metadata11">
    <rdf:RDF>
      <cc:Work
         rdf:about="">
        <dc:format>image/svg+xml</dc:format>
        <dc:type
           rdf:resource="http://purl.org/dc/dcmitype/StillImage" />
      </cc:Work>
    </rdf:RDF>
  </metadata>
  <sodipodi:namedview
     pagecolor="#ffffff"
     bordercolor="#666666"
     borderopacity="1"
     objecttolerance="10"
     gridtolerance="10"
     guidetolerance="10"
     inkscape:pageopacity="0"
     inkscape:pageshadow="2"
     inkscape:window-width="640"
     inkscape:window-height="480"
     id="namedview9"
     showgrid="false"
     inkscape:zoom="14.75"
     inkscape:cx="6.8135593"
     inkscape:cy="8"
     inkscape:window-x="0"
     inkscape:window-y="26"
     inkscape:window-maximized="0"
     inkscape:current-layer="svg7" />
  <defs
     id="defs3">
    <style
       id="current-color-scheme"
       type="text/css">
   .ColorScheme-Text { color:#5c616c; } .ColorScheme-Highlight { color:#5294e2; }
  </style>
  </defs>
  <path
     style="fill:#f1f6f8;fill-opacity:0.8509804"
     class="ColorScheme-Text"
     d="M 2.84375 1.0058594 C 2.56265 1.0495594 2 1.2398531 2 1.9394531 L 2 7 L 13.990234 7 C 13.989234 6.0534 13.991234 5.3142812 13.990234 4.7382812 L 9.9941406 1.0058594 L 3 1.0058594 C 3 1.0058594 2.93745 0.99126938 2.84375 1.0058594 z M 2 9 L 2 14.066406 C 2 14.999406 3 15 3 15 L 12.990234 15 C 13.989234 15 13.990234 14.066406 13.990234 14.066406 C 14.000234 14.043406 13.993234 11.248 13.990234 9 L 2 9 z"
     id="path5" />
</svg>

<svg width="16" height="16" version="1.1" viewBox="0 0 16 16" xmlns="http://www.w3.org/2000/svg">
<defs>
<style id="current-color-scheme" type="text/css">.ColorScheme-Text { color:#5c616c; } .ColorScheme-Highlight { color:#5294e2; }</style>
</defs>
<path class="ColorScheme-Text" d="m2.8438 1.0059c-0.2811 0.0437-0.84375 0.23399-0.84375 0.93359v5.0605h11.99c-1e-3 -0.9466 1e-3 -1.6857 0-2.2617l-3.9961-3.7324h-6.9941s-0.06255-0.01459-0.15625 0zm-0.84375 7.9941v5.0664c0 0.933 1 0.93359 1 0.93359h9.9902c0.999 0 1-0.93359 1-0.93359 0.01-0.023 3e-3 -2.8184 0-5.0664h-11.99z" fill="#dedede" fill-opacity=".85098"/>
</svg>
